X:15496
T:Sir Sidney Smith's March.Secundo. JMT049
M:4/4
L:1/8
Q:200
S:J.Moore,Tyneside,1841.(36)
R:March
O:England
A:Northumbria
Z:C.G.P
K:Bb
|:Bc|d2d2d2d2|e2d2c2B2|c2A2F2GA|B2F2B,2F2|B2B2A2A2|!
G2G2F2F2|"crotchets in MS"AGAB c2C2|F6:||z2|z8|B6z2|!
z8|e6z2|e2e2d2d2|c2c2B2B2|e2e2d2d2|!
c2c2B2B2|e2d2c2B2|e2d2c2B2|e2d2c2B2|F6Bc|d2d2d2d2|!
e2d2c2B2|B2A2F2GA|B2F2B,2F2|B2B2F2F2|!
G2G2F2F2|C2C2E2E2|F2F2A2A2|B2DEF2F2|B,6|]
